X: 1995
T: Yine Ey Yosma
C: Santûrî Ethem Efendi
O: Turkey
F: http://compmusic.upf.edu/node/140
N: karcigar--sarki--sofyan--yine_ey--santuri_ethem_efendi
N: makam= karcigar
N: form= sarki
N: usul= sofyan = 4/4
M: 4/4
L: 1/16
K: C _2/4B _3/4e ^3/4f 
Q: 1/4=81
%%MIDI tuningsystem comma53
z4 c2d2 d4 a4  | c'_bag ^f_7/8eed d4 z4  | \
w:   |   | 
_7/8e3d c2d2 e3d ^f2ed  | 
w:   | 
dcc_1/4B d2cB c2BA A4  | z4 ^f2g2 g4 a4  | \
w:   |   | 
_bag^f f_7/8eed dcc_1/4B c2a2  | 
w:   | 
a3g g3^f f3_7/8e e3d  | _7/8edcd e^fed d4 z4  | \
w:   |   | 
z4 c2d2 d4 a4  | 
w:   | 
^c'_bag ^fgab g2a2 z4  | _b3a a3g g3^f f3_7/8e  | \
w:   |   | 
d2d_7/8e g^fed dcc_1/4B c4  | 
w:   | 
z4 _1/4B2c2 d8  | ^f_7/8eed dcc_1/4B dcd2 cdc2  | \
w:   |   | 
d2g^f _7/8eddc c_1/4BB3AAc  | 
w:   | 
_1/4BAA8z8^f4g4g8ag =fga_1/4b agg6  | \
w:   | 
=f2a3ggf a3g g3f  | 
w:   | 
=f2g4f_7/8e gf=e^d e4  | z4 =e3g ^f4 f2g2  | \
w:   |   | 
^fg_a4ag g3f a4  | 
w:   | 
g6^f_7/8e f6ed  | _7/8edcd e^fed d4 z4  | \
w:   |   | 
z4 c2d2 d4 a4  | 
w:   | 
^c'_bag ^fgab g2a2 z4  | _b3a a3g g3^f f3_7/8e  | \
w:   |   | 
d2d_7/8e g^fed dcc_1/4B c4  | 
w:   | 
z4 _1/4B2c2 d8  | ^f_7/8eed dcc_1/4B dcd2 cdc2  | \
w:   |   | 
d2g^f _7/8eddc c_1/4BB3AAc  | 
w:   | 
_1/4BAA8z8^f4g4g8ag =fga_1/4b agg6  | \
w:   | 
=f2a3ggf a3g g3f  | 
w:   | 
=f2g4f_7/8e gf=e^d e4  | z4 =e3g ^f4 f2g2  | \
w:   |   | 
^fg_a4ag g3f a4  | 
w:   | 
g6^f_7/8e f6ed  | _7/8edcd e^fed d4 z4  | \
w:   |   | 
z4 _1/4B2c2 d4 d4  | 
w:   | 
d_7/8edc ^f2ed d8  | z4 d2_7/8e2 e4 e2d2  | \
w:   |   | 
d3c _7/8edc_1/4B c4 B2z4B2 c2d2 e^fed c2c3BBc BAA4z4z4B2 c2d4d4de  | 
w:   | 
dc^f2 _7/8edd8z4d2 e2e4e2 d2d3ced c_1/4Bc4B2 z4  | 
w:   | 
_1/4B2c2 d2_7/8e^f edc2 c3B  | _1/4BcBA A4 z4 |
w:   |   | 


